NotoEmoji/emoji_u1fae7.svg

<svg enable-background="new 0 0 128 128" viewBox="0 0 128 128" xmlns="http://www.w3.org/2000/svg"><circle cx="106.07" cy="57.86" fill="#4dd0e1" opacity=".42" r="16.87"/><path d="m104.21 46.15c.71 1.48-1.55 3.36-2.43 4.53-2.29 3.05-1.1 5.42-2.81 8.2-1.29 2.09-5.38 3.53-6.15-1.58-.48-3.2 1.52-6.82 2.88-8.3 4.51-4.9 7.92-4.07 8.51-2.85z" fill="#fff"/><path d="m106.07 76.22c-10.13 0-18.37-8.24-18.37-18.37s8.24-18.37 18.37-18.37 18.37 8.24 18.37 18.37-8.25 18.37-18.37 18.37zm-.35-34.14c-8.7 0-15.78 7.08-15.78 15.78s7.08 15.78 15.78 15.78 15.78-7.08 15.78-15.78-7.07-15.78-15.78-15.78z" fill="#4dc6e1"/><circle cx="89.27" cy="99.87" fill="#4dd0e1" opacity=".42" r="21.65"/><path d="m89.27 123.52c-13.04 0-23.65-10.61-23.65-23.65s10.61-23.65 23.65-23.65 23.65 10.61 23.65 23.65-10.61 23.65-23.65 23.65zm.6-44.41c-11.52 0-20.89 9.37-20.89 20.89s9.37 20.89 20.89 20.89 20.89-9.37 20.89-20.89-9.37-20.89-20.89-20.89z" fill="#4dc6e1"/><path d="m84.02 83.31c4.4-.3 5.92 2.84 4.83 5.33-1.4 3.2-4.66 2.06-7.53 5.17-1.98 2.15-6.21 4.48-6.8-.27-.52-4.2 4.13-9.86 9.5-10.23z" fill="#fff" opacity=".7"/><path d="m96.72 89c2.65-.01 2.97-2.99 1.55-4.58-1.64-2.45-7.13-2.19-5.83 1.85.57 1.78 1.61 2.74 4.28 2.73z" fill="#fff"/><circle cx="42.95" cy="43.86" fill="#4dd0e1" opacity=".42" r="38.37"/><path d="m38.56 14.73c4.39 1.51 5.55 5.43 4.2 8.78-1.24 3.08-5.9 4.47-8.82 6.06-4.45 2.41-7.68 5.54-10.09 9.99-2.33 4.3-8.61 6.04-9.47-.21-.67-4.89 2.37-11.85 5.22-15.42 2.52-3.15 5.98-5.96 9.6-7.76 2.55-1.26 6.59-2.39 9.36-1.44z" fill="#fff" opacity=".7"/><path d="m58.99 16.94c1.8 1.52 2.01 4.31-.48 5.18-1.11.31-2.27-.19-3.42-.27-2.34-.16-3.31.67-5.31-.18-2.98-1.28-4.21-3.86-2.79-5.98.7-1.04 2.03-1.57 3.21-1.8 3.2-.62 6.54.79 8.79 3.05z" fill="#fff"/><path d="m43.45 84.23c-21.99 0-39.88-17.89-39.88-39.88s17.89-39.87 39.88-39.87 39.88 17.89 39.88 39.88-17.9 39.87-39.88 39.87zm.62-75.53c-20.06 0-36.37 16.31-36.37 36.37s16.32 36.37 36.37 36.37 36.37-16.32 36.37-36.37-16.32-36.37-36.37-36.37z" fill="#4dc6e1"/><g fill="#fff"><path d="m72.05 50.5c-3.19-.93-3.07 2.5-6.43 7.97-2.24 3.64-6.96 8.37-14.64 10.26-4.52 1.11-6.55 2.06-6.68 3.72-.23 2.83 3.62 3.59 9.21 2.13 14.82-3.85 25.31-22.11 18.54-24.08z"/><path d="m105.63 104.96c-2.44-.83-1.86 2.93-6.68 6.32-5.14 3.62-8.25 2.75-8.43 4.8-.19 2.19 5.16 2.18 10.73-1.97 4.83-3.58 6.85-8.31 4.38-9.15z"/><path d="m119.38 59.85c.58-3.07-.15-9.52-3.26-7.46-1.25.83.72 4.38.12 7.43-.8 4.09-2.32 6.23-5.9 8.78-.82.58-.38 1.66 1.17 1.1 4.09-1.47 6.87-4.51 7.87-9.85z"/></g></svg>

<?xml version="1.0" encoding="utf-8"?>
<!-- Generator: Adobe Illustrator 25.2.3, SVG Export Plug-In . SVG Version: 6.00 Build 0)  -->
<svg version="1.1" id="Layer_7" xmlns="http://www.w3.org/2000/svg" xmlns:xlink="http://www.w3.org/1999/xlink" x="0px" y="0px"
	 viewBox="0 0 128 128" style="enable-background:new 0 0 128 128;" xml:space="preserve">
<g>
	<g>
		<g>
			<circle style="opacity:0.42;fill:#4DD0E1;" cx="106.07" cy="57.86" r="16.87"/>
			<path style="fill:#FFFFFF;" d="M104.21,46.15c0.71,1.48-1.55,3.36-2.43,4.53c-2.29,3.05-1.1,5.42-2.81,8.2
				c-1.29,2.09-5.38,3.53-6.15-1.58c-0.48-3.2,1.52-6.82,2.88-8.3C100.21,44.1,103.62,44.93,104.21,46.15z"/>
			<g>
				<path style="fill:#4DC6E1;" d="M106.07,76.22c-10.13,0-18.37-8.24-18.37-18.37s8.24-18.37,18.37-18.37s18.37,8.24,18.37,18.37
					S116.19,76.22,106.07,76.22z M105.72,42.08c-8.7,0-15.78,7.08-15.78,15.78s7.08,15.78,15.78,15.78s15.78-7.08,15.78-15.78
					S114.43,42.08,105.72,42.08z"/>
			</g>
		</g>
		<g>
			<g>
				<circle style="opacity:0.42;fill:#4DD0E1;" cx="89.27" cy="99.87" r="21.65"/>
				<g>
					<path style="fill:#4DC6E1;" d="M89.27,123.52c-13.04,0-23.65-10.61-23.65-23.65c0-13.04,10.61-23.65,23.65-23.65
						c13.04,0,23.65,10.61,23.65,23.65C112.92,112.91,102.31,123.52,89.27,123.52z M89.87,79.11c-11.52,0-20.89,9.37-20.89,20.89
						c0,11.52,9.37,20.89,20.89,20.89c11.52,0,20.89-9.37,20.89-20.89C110.76,88.48,101.39,79.11,89.87,79.11z"/>
				</g>
				<path style="opacity:0.7;fill:#FFFFFF;" d="M84.02,83.31c4.4-0.3,5.92,2.84,4.83,5.33c-1.4,3.2-4.66,2.06-7.53,5.17
					c-1.98,2.15-6.21,4.48-6.8-0.27C74,89.34,78.65,83.68,84.02,83.31z"/>
			</g>
			<path style="fill:#FFFFFF;" d="M96.72,89c2.65-0.01,2.97-2.99,1.55-4.58c-1.64-2.45-7.13-2.19-5.83,1.85
				C93.01,88.05,94.05,89.01,96.72,89z"/>
		</g>
		<g>
			<g>
				<circle style="opacity:0.42;fill:#4DD0E1;" cx="42.95" cy="43.86" r="38.37"/>
				<path style="opacity:0.7;fill:#FFFFFF;" d="M38.56,14.73c4.39,1.51,5.55,5.43,4.2,8.78c-1.24,3.08-5.9,4.47-8.82,6.06
					c-4.45,2.41-7.68,5.54-10.09,9.99c-2.33,4.3-8.61,6.04-9.47-0.21c-0.67-4.89,2.37-11.85,5.22-15.42
					c2.52-3.15,5.98-5.96,9.6-7.76C31.75,14.91,35.79,13.78,38.56,14.73z"/>
				<path style="fill:#FFFFFF;" d="M58.99,16.94c1.8,1.52,2.01,4.31-0.48,5.18c-1.11,0.31-2.27-0.19-3.42-0.27
					c-2.34-0.16-3.31,0.67-5.31-0.18c-2.98-1.28-4.21-3.86-2.79-5.98c0.7-1.04,2.03-1.57,3.21-1.8
					C53.4,13.27,56.74,14.68,58.99,16.94z"/>
				<g>
					<path style="fill:#4DC6E1;" d="M43.45,84.23c-21.99,0-39.88-17.89-39.88-39.88S21.46,4.48,43.45,4.48s39.88,17.89,39.88,39.88
						S65.43,84.23,43.45,84.23z M44.07,8.7C24.01,8.7,7.7,25.01,7.7,45.07s16.32,36.37,36.37,36.37s36.37-16.32,36.37-36.37
						S64.12,8.7,44.07,8.7z"/>
				</g>
			</g>
		</g>
	</g>
	<path style="fill:#FFFFFF;" d="M72.05,50.5c-3.19-0.93-3.07,2.5-6.43,7.97c-2.24,3.64-6.96,8.37-14.64,10.26
		c-4.52,1.11-6.55,2.06-6.68,3.72c-0.23,2.83,3.62,3.59,9.21,2.13C68.33,70.73,78.82,52.47,72.05,50.5z"/>
	<path style="fill:#FFFFFF;" d="M105.63,104.96c-2.44-0.83-1.86,2.93-6.68,6.32c-5.14,3.62-8.25,2.75-8.43,4.8
		c-0.19,2.19,5.16,2.18,10.73-1.97C106.08,110.53,108.1,105.8,105.63,104.96z"/>
	<path style="fill:#FFFFFF;" d="M119.38,59.85c0.58-3.07-0.15-9.52-3.26-7.46c-1.25,0.83,0.72,4.38,0.12,7.43
		c-0.8,4.09-2.32,6.23-5.9,8.78c-0.82,0.58-0.38,1.66,1.17,1.1C115.6,68.23,118.38,65.19,119.38,59.85z"/>
</g>
</svg>
